Suru++-Ubuntu/apps/scalable/wireshark.svg

<svg width="256" height="256" version="1.1" viewBox="0 0 67.73 67.73" xmlns="http://www.w3.org/2000/svg" xmlns:xlink="http://www.w3.org/1999/xlink">
 <defs>
  <linearGradient id="linearGradient1108-7" x1="296" x2="296" y1="-212" y2="236" gradientUnits="userSpaceOnUse">
   <stop style="stop-color:#ffffff" offset="0"/>
   <stop style="stop-color:#ffffff;stop-opacity:.09803922" offset=".125"/>
   <stop style="stop-color:#000000;stop-opacity:.09803922" offset=".925"/>
   <stop style="stop-color:#000000;stop-opacity:.49803922" offset="1"/>
  </linearGradient>
  <clipPath id="clipPath1082-3-69">
   <path d="M 361.9375,-212 C 507.2348,-212 528,-191.28677 528,-46.125 V 70.125 C 528,215.28618 507.2348,236 361.9375,236 H 214.0625 C 68.7652,236 48,215.28618 48,70.125 V -46.125 C 48,-191.28677 68.7652,-212 214.0625,-212 Z" style="fill:#8c59d9"/>
  </clipPath>
  <linearGradient id="linearGradient985" x1="24" x2="376" y1="28" y2="380" gradientTransform="matrix(.26970778 0 0 .26970778 -7.1289177 220.56049)" gradientUnits="userSpaceOnUse">
   <stop style="stop-color:#29ABE2" offset="0"/>
   <stop style="stop-color:#28A9E1" offset=".476"/>
   <stop style="stop-color:#23A2DC" offset=".664"/>
   <stop style="stop-color:#1A96D4" offset=".801"/>
   <stop style="stop-color:#0E85C9" offset=".913"/>
   <stop style="stop-color:#0071BC" offset="1"/>
  </linearGradient>
  <filter id="filter958" x="-.02" y="-.03" width="1.046" height="1.05" style="color-interpolation-filters:sRGB">
   <feGaussianBlur stdDeviation="2.32"/>
  </filter>
  <filter id="filter4569" x="-.01" y="-.01" width="1.023" height="1.025" style="color-interpolation-filters:sRGB">
   <feGaussianBlur stdDeviation="1.16"/>
  </filter>
 </defs>
 <g transform="translate(0,-229.26666)">
  <path transform="matrix(.26970778 0 0 .26970778 -7.1289177 220.56049)" d="m188.96876 43.999995c72.64865 0 83.03125 10.356615 83.03125 82.937505v58.125c0 72.58059-10.3826 82.9375-83.03125 82.9375h-73.9375c-72.648654 0-83.031254-10.35691-83.031254-82.9375v-58.125c0-72.58089 10.3826-82.937505 83.031254-82.937505z" style="filter:url(#filter4569);opacity:.1"/>
  <path transform="matrix(.26970778 0 0 .26970778 -7.1289177 220.56049)" d="m188.96876 45.999995c72.64865 0 83.03125 10.356615 83.03125 82.937505v58.125c0 72.58059-10.3826 82.9375-83.03125 82.9375h-73.9375c-72.648654 0-83.031254-10.35691-83.031254-82.9375v-58.125c0-72.58089 10.3826-82.937505 83.031254-82.937505z" style="filter:url(#filter958);opacity:.2"/>
  <path d="m43.837426 232.42763c19.593907 0 22.394175 2.79326 22.394175 22.36889v15.67677c0 19.57555-2.800268 22.36888-22.394175 22.36888h-19.94152c-19.593906 0-22.394174-2.79333-22.394174-22.36888v-15.67677c0-19.57563 2.8002682-22.36889 22.394174-22.36889z" style="fill:url(#linearGradient985)"/>
  <path d="m1.5091515 270.50311h16.449842s2.655765-33.82725 32.187178-34.29315c-9.526254 14.90877-0.59766 34.29315-0.59766 34.29315h16.675889" style="fill:none;opacity:.2;stroke-linejoin:round;stroke-width:3.0166144;stroke:#020202"/>
  <path transform="matrix(.26458333 0 0 .26458333 0 229.26666)" d="m5.7128906 157.31445c0.01997 8.54677 0.1558959 16.39912 0.5625 23.30274 0.217019 3.6847 0.5009694 7.14668 0.8652344 10.40039 0.364265 3.2537 0.8083678 6.29796 1.3457031 9.14648 0.5373354 2.84853 1.1680667 5.50155 1.9042969 7.97071 0.73623 2.46915 1.578113 4.75548 2.539063 6.87109 0.960949 2.11561 2.04046 4.05978 3.251953 5.84766 1.211492 1.78787 2.555108 3.41834 4.042968 4.90429 1.487861 1.48596 3.120104 2.82726 4.910157 4.03711 1.790053 1.20986 3.737399 2.28848 5.855468 3.24805 2.11807 0.95957 4.406996 1.80005 6.878907 2.53515 2.47191 0.73511 5.126939 1.3659 7.978515 1.90235 2.851577 0.53645 5.899184 0.98014 9.15625 1.34375s6.723729 0.64669 10.41211 0.86328c7.37676 0.43319 15.641474 0.59766 24.898437 0.59766h75.371097c9.25696 0 17.52167-0.16447 24.89843-0.59766 3.68838-0.21659 7.15505-0.49967 10.41211-0.86328 3.25707-0.36361 6.30468-0.8073 9.15625-1.34375 2.85158-0.53645 5.50661-1.16724 7.97852-1.90235 2.47191-0.7351 4.76084-1.57558 6.87891-2.53515s4.06541-2.03819 5.85546-3.24805c1.79006-1.20985 3.4223-2.55115 4.91016-4.03711 1.48786-1.48595 2.83148-3.11642 4.04297-4.90429 1.21149-1.78788 2.291-3.73205 3.25195-5.84766s1.80283-4.40194 2.53907-6.87109c0.73623-2.46916 1.36696-5.12218 1.90429-7.97071 0.53734-2.84852 0.98144-5.89278 1.34571-9.14648 0.36426-3.25371 0.64821-6.71569 0.86523-10.40039 0.43186-7.33237 0.59405-15.5581 0.5957-24.75l-244.60742 1.44726z" style="fill:#ffffff;opacity:.2"/>
  <path transform="matrix(.13485389 0 0 .13485389 -4.9712555 261.01666)" d="M 361.9375,-212 C 507.2348,-212 528,-191.28677 528,-46.125 V 70.125 C 528,215.28618 507.2348,236 361.9375,236 H 214.0625 C 68.7652,236 48,215.28618 48,70.125 V -46.125 C 48,-191.28677 68.7652,-212 214.0625,-212 Z" clip-path="url(#clipPath1082-3-69)" style="fill:none;opacity:.6;stroke-linecap:round;stroke-linejoin:round;stroke-width:8;stroke:url(#linearGradient1108-7)"/>
  <path d="m1.5091515 271.15002h16.449842s2.655765-33.82725 32.187178-34.29315c-9.526254 14.90877-0.59766 34.29315-0.59766 34.29315h16.675889" style="fill:none;opacity:.2;stroke-linejoin:round;stroke-width:3.0166144;stroke:#fff9f9"/>
  <path transform="matrix(.26458333 0 0 .26458333 0 229.26666)" d="m5.7038796 156.85391h62.172633s10.037537-127.85102 121.65233-129.61191c-36.00474 56.348107-2.25887 129.61191-2.25887 129.61191h63.02698" style="fill:none;stroke-linejoin:round;stroke-width:11.401378;stroke:#00548d"/>
 </g>
</svg>

<svg xmlns="http://www.w3.org/2000/svg" xmlns:xlink="http://www.w3.org/1999/xlink" width="256" height="256" version="1.1" viewBox="0 0 67.73 67.73">
 <defs>
  <linearGradient id="linearGradient1108-7" x1="296" x2="296" y1="-212" y2="236" gradientUnits="userSpaceOnUse" xlink:href="#linearGradient1013"/>
  <linearGradient id="linearGradient1013">
   <stop style="stop-color:#ffffff" offset="0"/>
   <stop offset=".125" style="stop-color:#ffffff;stop-opacity:0.09803922"/>
   <stop offset=".925" style="stop-color:#000000;stop-opacity:0.09803922"/>
   <stop style="stop-color:#000000;stop-opacity:0.49803922" offset="1"/>
  </linearGradient>
  <clipPath id="clipPath1082-3-69" clipPathUnits="userSpaceOnUse">
   <path style="fill:#8c59d9" d="M 361.9375,-212 C 507.2348,-212 528,-191.28677 528,-46.125 V 70.125 C 528,215.28618 507.2348,236 361.9375,236 H 214.0625 C 68.7652,236 48,215.28618 48,70.125 V -46.125 C 48,-191.28677 68.7652,-212 214.0625,-212 Z"/>
  </clipPath>
  <linearGradient id="linearGradient985" x1="24" x2="376" y1="28" y2="380" gradientTransform="matrix(0.26970778,0,0,0.26970778,-7.1289177,220.56049)" gradientUnits="userSpaceOnUse" xlink:href="#linearGradient4246"/>
  <filter id="filter958" width="1.046" height="1.05" x="-.02" y="-.03" style="color-interpolation-filters:sRGB">
   <feGaussianBlur stdDeviation="2.32"/>
  </filter>
  <filter id="filter4569" width="1.023" height="1.025" x="-.01" y="-.01" style="color-interpolation-filters:sRGB">
   <feGaussianBlur stdDeviation="1.16"/>
  </filter>
  <linearGradient id="linearGradient4246" x1="64" x2="64" y1="3" y2="113" gradientUnits="userSpaceOnUse">
   <stop offset="0" style="stop-color:#29ABE2"/>
   <stop offset=".476" style="stop-color:#28A9E1"/>
   <stop offset=".664" style="stop-color:#23A2DC"/>
   <stop offset=".801" style="stop-color:#1A96D4"/>
   <stop offset=".913" style="stop-color:#0E85C9"/>
   <stop offset="1" style="stop-color:#0071BC"/>
  </linearGradient>
 </defs>
 <g transform="translate(0,-229.26666)">
  <path style="opacity:0.1;filter:url(#filter4569)" d="m 188.96876,43.999995 c 72.64865,0 83.03125,10.356615 83.03125,82.937505 v 58.125 c 0,72.58059 -10.3826,82.9375 -83.03125,82.9375 h -73.9375 C 42.382606,268 32.000006,257.64309 32.000006,185.0625 v -58.125 c 0,-72.58089 10.3826,-82.937505 83.031254,-82.937505 z" transform="matrix(0.26970778,0,0,0.26970778,-7.1289177,220.56049)"/>
  <path d="m 188.96876,45.999995 c 72.64865,0 83.03125,10.356615 83.03125,82.937505 v 58.125 c 0,72.58059 -10.3826,82.9375 -83.03125,82.9375 h -73.9375 C 42.382606,270 32.000006,259.64309 32.000006,187.0625 v -58.125 c 0,-72.58089 10.3826,-82.937505 83.031254,-82.937505 z" transform="matrix(0.26970778,0,0,0.26970778,-7.1289177,220.56049)" style="opacity:0.2;filter:url(#filter958)"/>
  <path d="m 43.837426,232.42763 c 19.593907,0 22.394175,2.79326 22.394175,22.36889 v 15.67677 c 0,19.57555 -2.800268,22.36888 -22.394175,22.36888 h -19.94152 c -19.5939063,0 -22.3941745,-2.79333 -22.3941745,-22.36888 v -15.67677 c 0,-19.57563 2.8002682,-22.36889 22.3941745,-22.36889 z" style="fill:url(#linearGradient985)"/>
  <path style="opacity:0.2;fill:none;stroke:#020202;stroke-width:3.01661444;stroke-linejoin:round" d="M 1.5091515,270.50311 H 17.958994 c 0,0 2.655765,-33.82725 32.187178,-34.29315 -9.526254,14.90877 -0.59766,34.29315 -0.59766,34.29315 h 16.675889"/>
  <path d="M 5.7128906 157.31445 C 5.7328606 165.86122 5.8687865 173.71357 6.2753906 180.61719 C 6.4924096 184.30189 6.77636 187.76387 7.140625 191.01758 C 7.50489 194.27128 7.9489928 197.31554 8.4863281 200.16406 C 9.0236635 203.01259 9.6543948 205.66561 10.390625 208.13477 C 11.126855 210.60392 11.968738 212.89025 12.929688 215.00586 C 13.890637 217.12147 14.970148 219.06564 16.181641 220.85352 C 17.393133 222.64139 18.736749 224.27186 20.224609 225.75781 C 21.71247 227.24377 23.344713 228.58507 25.134766 229.79492 C 26.924819 231.00478 28.872165 232.0834 30.990234 233.04297 C 33.108304 234.00254 35.39723 234.84302 37.869141 235.57812 C 40.341051 236.31323 42.99608 236.94402 45.847656 237.48047 C 48.699233 238.01692 51.74684 238.46061 55.003906 238.82422 C 58.260972 239.18783 61.727635 239.47091 65.416016 239.6875 C 72.792776 240.12069 81.05749 240.28516 90.314453 240.28516 L 165.68555 240.28516 C 174.94251 240.28516 183.20722 240.12069 190.58398 239.6875 C 194.27236 239.47091 197.73903 239.18783 200.99609 238.82422 C 204.25316 238.46061 207.30077 238.01692 210.15234 237.48047 C 213.00392 236.94402 215.65895 236.31323 218.13086 235.57812 C 220.60277 234.84302 222.8917 234.00254 225.00977 233.04297 C 227.12784 232.0834 229.07518 231.00478 230.86523 229.79492 C 232.65529 228.58507 234.28753 227.24377 235.77539 225.75781 C 237.26325 224.27186 238.60687 222.64139 239.81836 220.85352 C 241.02985 219.06564 242.10936 217.12147 243.07031 215.00586 C 244.03126 212.89025 244.87314 210.60392 245.60938 208.13477 C 246.34561 205.66561 246.97634 203.01259 247.51367 200.16406 C 248.05101 197.31554 248.49511 194.27128 248.85938 191.01758 C 249.22364 187.76387 249.50759 184.30189 249.72461 180.61719 C 250.15647 173.28482 250.31866 165.05909 250.32031 155.86719 L 5.7128906 157.31445 z" transform="matrix(0.26458333,0,0,0.26458333,0,229.26666)" style="fill:#ffffff;opacity:0.2"/>
  <path style="opacity:0.6;fill:none;stroke:url(#linearGradient1108-7);stroke-width:8;stroke-linecap:round;stroke-linejoin:round" d="M 361.9375,-212 C 507.2348,-212 528,-191.28677 528,-46.125 V 70.125 C 528,215.28618 507.2348,236 361.9375,236 H 214.0625 C 68.7652,236 48,215.28618 48,70.125 V -46.125 C 48,-191.28677 68.7652,-212 214.0625,-212 Z" clip-path="url(#clipPath1082-3-69)" transform="matrix(0.13485389,0,0,0.13485389,-4.9712555,261.01666)"/>
  <path style="opacity:0.2;fill:none;stroke:#fff9f9;stroke-width:3.01661444;stroke-linejoin:round" d="M 1.5091515,271.15002 H 17.958994 c 0,0 2.655765,-33.82725 32.187178,-34.29315 -9.526254,14.90877 -0.59766,34.29315 -0.59766,34.29315 h 16.675889"/>
  <path d="M 5.7038796 156.85391 L 67.876513 156.85391 C 67.876513 156.85391 77.91405 29.002885 189.52884 27.242003 C 153.5241 83.59011 187.26997 156.85391 187.26997 156.85391 L 250.29695 156.85391" transform="matrix(0.26458333,0,0,0.26458333,0,229.26666)" style="fill:none;stroke:#00548d;stroke-width:11.40137768;stroke-linejoin:round"/>
 </g>
</svg>
